packages/bezier-icons/icons/windows.svg

<svg width="24" height="24" viewBox="0 0 24 24" fill="none" xmlns="http://www.w3.org/2000/svg">
<path fill-rule="evenodd" clip-rule="evenodd" d="M21.0002 11.5733V2.96631L11.2232 4.41031V11.6143L21.0002 11.5733ZM3.0005 5.62621L10.3615 4.53821V11.6172L3.0005 11.6482V5.62621ZM3.0002 18.513V12.421L10.3612 12.451V19.544L3.0002 18.513ZM20.9998 21.0341L11.2228 19.6651V12.4551L20.9998 12.4961V21.0341Z" fill="#313234"/>
</svg>

<svg xmlns="http://www.w3.org/2000/svg" width="24" height="24" fill="none" viewBox="0 0 24 24"><path fill="#313234" fill-rule="evenodd" d="M21 11.573V2.966L11.223 4.41v7.204zM3 5.626l7.361-1.088v7.08l-7.36.03zm0 12.887v-6.092l7.361.03v7.093zm18 2.521-9.777-1.369v-7.21l9.777.041z" clip-rule="evenodd"/></svg>
